app/style/icons/ticket-live.svg

<svg viewBox="0 0 40 40" xmlns="http://www.w3.org/2000/svg"><path d="m0 0h40v40h-40z" fill="none"/><path d="m27.6 0a7.6 7.6 0 0 1 -7.6 7.6 7.6 7.6 0 0 1 -7.6-7.6h-6.67v40h6.67a7.6 7.6 0 0 1 15.2 0h6.67v-40z" fill="#2971ff"/><path d="m11.47 20a8.53 8.53 0 1 1 8.53 8.53 8.53 8.53 0 0 1 -8.53-8.53z" fill="#699bff"/></svg>

<svg xmlns="http://www.w3.org/2000/svg" viewBox="0 0 40 40"><defs><style>.cls-1{fill:none;}.cls-2{fill:#2971ff;}.cls-3{fill:#699bff;}</style></defs><title>ticket-live</title><g id="Layer_2" data-name="Layer 2"><g id="Layer_1-2" data-name="Layer 1"><g id="Symbol_7_1" data-name="Symbol 7 1"><g id="Group_369" data-name="Group 369"><g id="_Group_" data-name="&lt;Group&gt;"><rect id="_Path_" data-name="&lt;Path&gt;" class="cls-1" width="40" height="40"/></g><g id="_Group_2" data-name="&lt;Group&gt;"><path id="_Path_2" data-name="&lt;Path&gt;" class="cls-2" d="M27.6,0A7.6,7.6,0,0,1,20,7.6,7.6,7.6,0,0,1,12.4,0H5.73V40H12.4a7.6,7.6,0,0,1,15.2,0h6.67V0Z"/><path id="_Path_3" data-name="&lt;Path&gt;" class="cls-3" d="M11.47,20A8.53,8.53,0,1,1,20,28.53,8.53,8.53,0,0,1,11.47,20Z"/></g></g></g></g></g></svg>
